<?xml version="1.0" encoding="UTF-8"?>
<map version="1.10" tiledversion="1.12.1" orientation="orthogonal" renderorder="right-down" width="20" height="20" tilewidth="18" tileheight="18" infinite="0" nextlayerid="8" nextobjectid="1">
 <editorsettings>
  <export target="Cutscene1-2.tmj" format="json"/>
 </editorsettings>
 <tileset firstgid="1" name="tilemap-backgrounds_packed" tilewidth="18" tileheight="18" tilecount="40" columns="10">
  <image source="../../Platformer/assets/tilemap-backgrounds_packed.png" width="192" height="72"/>
 </tileset>
 <tileset firstgid="41" name="pixel_platformer_industrial_tilemap_packed" tilewidth="18" tileheight="18" tilecount="112" columns="16">
  <image source="../../Platformer/assets/pixel_platformer_industrial_tilemap_packed.png" width="288" height="126"/>
  <tile id="17">
   <properties>
    <property name="collides" type="bool" value="true"/>
   </properties>
  </tile>
  <tile id="18">
   <properties>
    <property name="collides" type="bool" value="true"/>
   </properties>
  </tile>
  <tile id="19">
   <properties>
    <property name="collides" type="bool" value="true"/>
   </properties>
  </tile>
 </tileset>
 <tileset firstgid="153" name="kenny_tilemap_packed" tilewidth="18" tileheight="18" tilecount="180" columns="20">
  <image source="../../Platformer/assets/tilemap_packed.png" width="360" height="162"/>
  <tile id="101">
   <properties>
    <property name="collides" type="bool" value="true"/>
   </properties>
  </tile>
  <tile id="102">
   <properties>
    <property name="collides" type="bool" value="true"/>
   </properties>
  </tile>
  <tile id="103">
   <properties>
    <property name="collides" type="bool" value="true"/>
   </properties>
  </tile>
 </tileset>
 <layer id="2" name="Sky" width="20" height="20">
  <data encoding="csv">
1,2,3,4,5,1,2,3,4,5,9,9,9,9,9,9,9,9,9,9,
1,2,3,4,5,1,2,3,4,5,9,9,9,9,9,9,9,9,9,9,
1,2,3,4,5,1,2,3,4,5,9,9,9,9,9,9,9,9,9,9,
1,2,3,4,5,1,2,3,4,5,9,9,9,9,9,9,9,9,9,9,
1,2,3,4,5,1,2,3,4,5,9,9,9,9,9,9,9,9,9,9,
1,2,3,4,5,1,2,3,4,5,9,9,9,9,9,9,9,9,9,9,
1,2,3,4,1,2,3,4,1,2,9,10,9,10,9,10,9,10,9,10,
11,12,13,14,11,12,13,14,11,12,19,20,19,20,19,20,19,20,19,20,
21,22,23,24,21,22,23,24,21,22,29,30,29,30,29,30,29,30,29,30,
31,32,33,34,31,32,33,34,31,32,39,40,39,40,39,40,39,40,39,40,
0,0,0,0,0,0,0,0,0,0,0,0,0,0,0,0,0,0,0,0,
0,0,0,0,0,0,0,0,0,0,0,0,0,0,0,0,0,0,0,0,
0,0,0,0,0,0,0,0,0,0,0,0,0,0,0,0,0,0,0,0,
0,0,0,0,0,0,0,0,0,0,0,0,0,0,0,0,0,0,0,0,
0,0,0,0,0,0,0,0,0,0,0,0,0,0,0,0,0,0,0,0,
0,0,0,0,0,0,0,0,0,0,0,0,0,0,0,0,0,0,0,0,
0,0,0,0,0,0,0,0,0,0,0,0,0,0,0,0,0,0,0,0,
0,0,0,0,0,0,0,0,0,0,0,0,0,0,0,0,0,0,0,0,
0,0,0,0,0,0,0,0,0,0,0,0,0,0,0,0,0,0,0,0,
0,0,0,0,0,0,0,0,0,0,0,0,0,0,0,0,0,0,0,0
</data>
 </layer>
 <layer id="4" name="Background3" width="20" height="20">
  <data encoding="csv">
0,0,0,0,0,0,0,0,0,0,0,0,0,0,0,0,0,0,0,0,
0,0,0,0,0,0,0,0,0,0,0,0,0,0,0,0,0,0,0,0,
0,0,0,0,0,0,0,0,0,0,0,0,0,0,0,0,0,0,0,0,
0,0,0,0,0,0,0,0,0,0,0,0,0,0,0,0,0,0,0,0,
0,0,0,170,171,172,0,0,0,0,0,0,0,0,0,0,0,0,0,0,
0,0,0,190,191,192,0,0,0,0,0,0,0,0,0,0,0,0,0,0,
0,0,0,210,270,212,0,0,0,0,0,0,0,0,0,0,67,0,0,0,
0,0,0,0,249,0,0,0,0,0,0,0,0,0,0,0,83,0,0,0,
0,0,0,0,269,0,0,0,0,0,0,0,0,0,0,0,99,0,0,0,
0,0,0,0,289,0,0,0,0,0,0,0,0,0,0,0,115,0,0,0,
0,0,0,0,0,0,0,0,0,0,0,0,0,0,0,0,0,0,0,0,
0,0,0,0,0,0,0,0,0,0,0,0,0,0,0,0,0,0,0,0,
0,0,0,0,0,0,0,0,0,0,0,0,0,0,0,0,0,0,0,0,
0,0,0,0,0,0,0,0,0,0,0,0,0,0,0,0,0,0,0,0,
0,0,0,0,0,0,0,0,0,0,0,0,0,0,0,0,0,0,0,0,
0,0,0,0,0,0,0,0,0,0,0,0,0,0,0,0,0,0,0,0,
0,0,0,0,0,0,0,0,0,0,0,0,0,0,0,0,0,0,0,0,
0,0,0,0,0,0,0,0,0,0,0,0,0,0,0,0,0,0,0,0,
0,0,0,0,0,0,0,0,0,0,0,0,0,0,0,0,0,0,0,0,
0,0,0,0,0,0,0,0,0,0,0,0,0,0,0,0,0,0,0,0
</data>
 </layer>
 <layer id="6" name="Background2" width="20" height="20">
  <data encoding="csv">
0,0,0,0,0,0,0,0,0,0,0,0,0,0,61,46,62,79,62,78,
0,0,0,0,0,0,0,0,0,0,0,0,0,0,96,0,0,95,0,94,
0,0,0,170,171,172,0,0,0,0,0,0,0,0,3221225568,0,0,111,0,94,
0,0,170,191,191,191,172,0,0,0,0,0,0,0,112,0,125,126,127,94,
0,0,190,191,191,191,212,0,0,0,0,0,0,0,0,0,0,0,0,94,
0,251,252,0,0,0,3221225724,3221225723,0,0,0,0,0,0,0,0,0,0,0,94,
0,0,0,0,211,3221225723,0,0,0,0,0,0,0,0,0,0,0,0,0,94,
0,0,0,0,0,0,0,0,0,0,0,0,93,0,0,0,0,0,0,94,
0,0,0,0,0,0,0,0,0,0,0,0,93,0,0,0,0,0,0,94,
0,0,0,0,0,0,0,0,0,0,0,0,93,0,0,0,0,0,0,109,
0,0,0,0,0,0,0,0,0,0,0,0,0,0,0,0,0,0,0,0,
0,0,0,0,0,0,0,0,0,0,0,0,0,0,0,0,0,0,0,0,
0,0,0,0,0,0,0,0,0,0,0,0,0,0,0,0,0,0,0,0,
0,0,0,0,0,0,0,0,0,0,0,0,0,0,0,0,0,0,0,0,
0,0,0,0,0,0,0,0,0,0,0,0,0,0,0,0,0,0,0,0,
0,0,0,0,0,0,0,0,0,0,0,0,0,0,0,0,0,0,0,0,
0,0,0,0,0,0,0,0,0,0,0,0,0,0,0,0,0,0,0,0,
0,0,0,0,0,0,0,0,0,0,0,0,0,0,0,0,0,0,0,0,
0,0,0,0,0,0,0,0,0,0,0,0,0,0,0,0,0,0,0,0,
0,0,0,0,0,0,0,0,0,0,0,0,0,0,0,0,0,0,0,0
</data>
 </layer>
 <layer id="3" name="Background" width="20" height="20">
  <data encoding="csv">
0,0,0,0,0,0,0,0,0,0,0,0,0,0,0,0,0,0,0,62,
0,0,0,0,0,0,0,0,0,0,0,0,0,0,0,0,0,0,0,0,
0,0,0,0,0,0,0,0,0,0,0,0,0,0,0,0,0,0,0,0,
0,0,0,0,0,0,0,0,0,0,0,0,0,0,0,0,0,0,0,0,
0,0,0,0,0,0,0,0,0,0,0,0,0,0,0,0,0,0,0,0,
0,0,0,0,0,0,0,0,187,0,0,0,0,0,0,0,0,0,0,0,
165,166,166,168,0,0,0,0,207,0,0,45,46,47,0,0,0,0,0,0,
185,0,0,0,0,0,0,0,207,0,0,0,0,0,0,0,0,0,0,0,
205,0,0,0,0,0,187,0,207,0,0,0,0,0,0,0,0,0,0,0,
225,0,0,297,0,298,207,297,207,0,0,0,0,0,0,0,0,0,0,0,
0,0,0,0,0,0,0,0,0,0,0,0,0,0,0,0,0,0,0,0,
0,0,0,0,0,0,0,0,0,0,0,0,0,0,0,0,0,0,0,0,
0,0,0,0,0,0,0,0,0,0,0,0,0,0,0,0,0,0,0,0,
0,0,0,0,0,0,0,0,0,0,0,0,0,0,0,0,0,0,0,0,
0,0,0,0,0,0,0,0,0,0,0,0,0,0,0,0,0,0,0,0,
0,0,0,0,0,0,0,0,0,0,0,0,0,0,0,0,0,0,0,0,
0,0,0,0,0,0,0,0,0,0,0,0,0,0,0,0,0,0,0,0,
0,0,0,0,0,0,0,0,0,0,0,0,0,0,0,0,0,0,0,0,
0,0,0,0,0,0,0,0,0,0,0,0,0,0,0,0,0,0,0,0,
0,0,0,0,0,0,0,0,0,0,0,0,0,0,0,0,0,0,0,0
</data>
 </layer>
 <layer id="1" name="Ground" width="20" height="20">
  <data encoding="csv">
0,0,0,0,0,0,0,0,0,0,0,0,0,0,0,0,0,0,0,0,
0,0,0,0,0,0,0,0,0,0,0,0,0,0,0,0,0,0,0,0,
0,0,0,0,0,0,0,0,0,0,0,0,0,0,0,0,0,0,0,0,
0,0,0,0,0,0,0,0,0,0,0,0,0,0,0,0,0,0,0,0,
0,0,0,0,0,0,0,0,0,0,0,0,0,0,0,0,0,0,0,0,
0,0,0,0,0,0,0,0,0,0,0,0,0,0,0,0,0,0,0,0,
0,0,0,0,0,0,0,0,0,0,0,0,0,0,0,0,0,0,0,0,
0,0,0,0,0,0,0,0,0,0,0,0,0,0,0,0,0,0,0,0,
0,0,0,0,0,0,0,0,0,0,0,0,0,0,0,0,0,0,0,0,
0,0,0,0,0,0,0,0,0,0,0,0,0,0,0,0,0,0,0,0,
255,255,255,255,255,255,255,255,255,255,59,59,59,59,59,59,59,59,59,59,
75,75,75,75,75,75,75,75,75,75,75,75,75,75,75,75,75,75,75,75,
75,75,75,75,75,75,75,75,75,75,75,75,75,75,75,75,75,75,75,75,
75,75,75,75,75,75,75,75,75,75,75,75,75,75,75,75,75,75,75,75,
75,75,75,75,75,75,75,75,75,75,75,75,75,75,75,75,75,75,75,75,
75,75,75,75,75,75,75,75,75,75,75,75,75,75,75,75,75,75,75,75,
75,75,75,75,75,75,75,75,75,75,75,75,75,75,75,75,75,75,75,75,
75,75,75,75,75,75,75,75,75,75,75,75,75,75,75,75,75,75,75,75,
75,75,75,75,75,75,75,75,75,75,75,75,75,75,75,75,75,75,75,75,
75,75,75,75,75,75,75,75,75,75,75,75,75,75,75,75,75,75,75,75
</data>
 </layer>
</map>
