<?xml version="1.0" encoding="UTF-8"?>
<map version="1.10" tiledversion="1.12.1" orientation="orthogonal" renderorder="right-down" width="20" height="20" tilewidth="18" tileheight="18" infinite="0" nextlayerid="4" nextobjectid="1">
 <tileset firstgid="1" name="pixel_platformer_industrial_tilemap_packed" tilewidth="18" tileheight="18" tilecount="112" columns="16">
  <image source="../../Platformer/assets/pixel_platformer_industrial_tilemap_packed.png" width="288" height="126"/>
  <tile id="17">
   <properties>
    <property name="collides" type="bool" value="true"/>
   </properties>
  </tile>
  <tile id="18">
   <properties>
    <property name="collides" type="bool" value="true"/>
   </properties>
  </tile>
  <tile id="19">
   <properties>
    <property name="collides" type="bool" value="true"/>
   </properties>
  </tile>
  <tile id="78">
   <animation>
    <frame tileid="78" duration="250"/>
    <frame tileid="79" duration="250"/>
   </animation>
  </tile>
 </tileset>
 <tileset firstgid="113" name="tilemap-backgrounds_packed" tilewidth="18" tileheight="18" tilecount="40" columns="10">
  <image source="../../Platformer/assets/tilemap-backgrounds_packed.png" width="192" height="72"/>
 </tileset>
 <tileset firstgid="153" name="tilemap-backgrounds_pink" tilewidth="18" tileheight="18" tilecount="40" columns="10">
  <image source="tilemap-backgrounds_pink.png" width="192" height="72"/>
 </tileset>
 <tileset firstgid="193" name="tilemap_packed_food" tilewidth="18" tileheight="18" tilecount="112" columns="16">
  <image source="tilemap_packed_food.png" width="288" height="126"/>
  <tile id="21">
   <properties>
    <property name="collides" type="bool" value="true"/>
   </properties>
  </tile>
  <tile id="22">
   <properties>
    <property name="collides" type="bool" value="true"/>
   </properties>
  </tile>
  <tile id="23">
   <properties>
    <property name="collides" type="bool" value="true"/>
   </properties>
  </tile>
 </tileset>
 <layer id="2" name="Sky" width="20" height="20">
  <data encoding="csv">
121,122,121,122,121,122,121,122,121,122,2684354713,2684354713,2684354713,2684354713,2684354713,2684354713,2684354713,2684354713,2684354713,2684354713,
121,122,121,122,121,122,121,122,121,122,2684354713,2684354714,2684354714,2684354714,2684354714,2684354714,2684354714,2684354714,2684354714,2684354714,
121,122,121,122,121,122,121,122,121,122,2684354714,2684354715,2684354715,2684354715,2684354715,2684354715,2684354715,2684354715,2684354715,2684354715,
121,122,121,122,121,122,121,122,121,122,2684354715,2684354716,2684354716,2684354716,2684354716,2684354716,2684354716,2684354716,2684354716,2684354716,
121,122,121,122,121,122,121,122,121,122,2684354716,2684354717,2684354717,2684354717,2684354717,2684354717,2684354717,2684354717,2684354717,2684354717,
121,122,121,122,121,122,121,122,121,122,2684354717,2684354713,2684354713,2684354713,2684354713,2684354713,2684354713,2684354713,2684354713,2684354713,
121,122,121,122,121,122,121,122,121,122,153,154,155,156,153,154,155,156,153,154,
131,132,131,132,131,132,131,132,131,132,163,164,165,166,163,164,165,166,163,164,
141,142,141,142,141,142,141,142,141,142,173,174,175,176,173,174,175,176,173,174,
151,152,151,152,151,152,151,152,151,152,183,184,185,186,183,184,185,186,183,184,
0,0,0,0,0,0,0,0,0,0,0,0,0,0,0,0,0,0,0,0,
0,0,0,0,0,0,0,0,0,0,0,0,0,0,0,0,0,0,0,0,
0,0,0,0,0,0,0,0,0,0,0,0,0,0,0,0,0,0,0,0,
0,0,0,0,0,0,0,0,0,0,0,0,0,0,0,0,0,0,0,0,
0,0,0,0,0,0,0,0,0,0,0,0,0,0,0,0,0,0,0,0,
0,0,0,0,0,0,0,0,0,0,0,0,0,0,0,0,0,0,0,0,
0,0,0,0,0,0,0,0,0,0,0,0,0,0,0,0,0,0,0,0,
0,0,0,0,0,0,0,0,0,0,0,0,0,0,0,0,0,0,0,0,
0,0,0,0,0,0,0,0,0,0,0,0,0,0,0,0,0,0,0,0,
0,0,0,0,0,0,0,0,0,0,0,0,0,0,0,0,0,0,0,0
</data>
 </layer>
 <layer id="3" name="Background" width="20" height="20">
  <data encoding="csv">
0,0,0,0,0,0,0,0,0,0,0,0,0,0,0,0,0,0,0,0,
0,0,0,0,0,0,0,0,0,0,0,0,0,0,0,0,0,0,0,0,
0,0,0,0,0,0,0,0,0,0,0,0,0,0,0,0,0,0,0,0,
0,0,0,0,0,0,0,0,0,0,0,0,0,0,0,0,0,0,0,0,
0,0,0,0,0,0,0,0,0,0,0,0,0,0,0,0,0,0,0,0,
6,22,6,22,23,0,0,0,0,12,0,206,0,237,238,239,240,0,0,0,
54,0,0,0,56,0,0,0,0,28,0,0,0,0,0,0,0,0,207,0,
54,0,0,0,72,0,0,0,0,44,0,0,0,208,0,0,0,0,0,0,
54,2684354636,2684354636,2684354636,2684354636,2684354636,2684354636,78,0,28,0,273,0,0,0,0,201,0,274,0,
70,0,0,0,58,0,0,79,0,44,0,289,283,0,0,236,217,0,290,0,
0,0,0,0,0,0,0,0,0,0,0,0,0,0,0,0,0,0,0,0,
0,0,0,0,0,0,0,0,0,0,0,0,0,0,0,0,0,0,0,0,
0,0,0,0,0,0,0,0,0,0,0,0,0,0,0,0,0,0,0,0,
0,0,0,0,0,0,0,0,0,0,0,0,0,0,0,0,0,0,0,0,
0,0,0,0,0,0,0,0,0,0,0,0,0,0,0,0,0,0,0,0,
0,0,0,0,0,0,0,0,0,0,0,0,0,0,0,0,0,0,0,0,
0,0,0,0,0,0,0,0,0,0,0,0,0,0,0,0,0,0,0,0,
0,0,0,0,0,0,0,0,0,0,0,0,0,0,0,0,0,0,0,0,
0,0,0,0,0,0,0,0,0,0,0,0,0,0,0,0,0,0,0,0,
0,0,0,0,0,0,0,0,0,0,0,0,0,0,0,0,0,0,0,0
</data>
 </layer>
 <layer id="1" name="Ground" width="20" height="20">
  <data encoding="csv">
0,0,0,0,0,0,0,0,0,0,0,0,0,0,0,0,0,0,0,0,
0,0,0,0,0,0,0,0,0,0,0,0,0,0,0,0,0,0,0,0,
0,0,0,0,0,0,0,0,0,0,0,0,0,0,0,0,0,0,0,0,
0,0,0,0,0,0,0,0,0,0,0,0,0,0,0,0,0,0,0,0,
0,0,0,0,0,0,0,0,0,0,0,0,0,0,0,0,0,0,0,0,
0,0,0,0,0,0,0,0,0,0,0,0,0,0,0,0,0,0,0,0,
0,0,0,0,0,0,0,0,0,0,0,0,0,0,0,0,0,0,0,0,
0,0,0,0,0,0,0,0,0,0,0,0,0,0,0,0,0,0,0,0,
0,0,0,0,0,0,0,0,0,0,0,0,0,0,0,0,0,0,0,0,
0,0,0,0,0,0,0,0,0,0,0,0,0,0,0,0,0,0,0,0,
19,19,19,19,19,19,19,19,19,19,215,215,215,215,215,215,215,215,215,215,
35,35,35,35,35,35,35,35,35,35,231,231,231,231,231,231,231,231,231,231,
35,35,35,35,35,35,35,35,35,35,231,231,231,231,231,231,231,231,231,231,
35,35,35,35,35,35,35,35,35,35,231,231,231,231,231,231,231,231,231,231,
35,35,35,35,35,35,35,35,35,35,231,231,231,231,231,231,231,231,231,231,
35,35,35,35,35,35,35,35,35,35,231,231,231,231,231,231,231,231,231,231,
35,35,35,35,35,35,35,35,35,35,231,231,231,231,231,231,231,231,231,231,
35,35,35,35,35,35,35,35,35,35,231,231,231,231,231,231,231,231,231,231,
35,35,35,35,35,35,35,35,35,35,231,231,231,231,231,231,231,231,231,231,
35,35,35,35,35,35,35,35,35,35,231,231,231,231,231,231,231,231,231,231
</data>
 </layer>
</map>
